!!!!SEGMENT: pl-kk--kk-i-220--002_anonim--omni-die-dic-mariae.krn
!!!id: 16xx:776
!!!COM: Anonim
!!!COM-rism: pe30004985
!!!CDT:
!!!CNT:
!!!OTL: Omni die dic Mariae
!!!PDT:
!!!SMS-siglum: PL-Kk
!!!SMS-shelfmark: Kk.I.220
!!!NIFC-rismID: 1001143677
!!!URL-scan: http://repozytorium.nifc.pl/skany/pl-kk-nut--i-220
!!!ONB-nifc: UWAGA: w zbiorze 1. Omni die dic Mariae (I), 2. Omni die dic Mariae (II)
!!!SMS-variant:
!!!SMS-altvar:
**kern	**text	**text
*clefF4	*	*
*k[b-]	*	*
*F:	*	*
*M3/2	*	*
=1	=1	=1
!LO:TX:t=P:problem:znaki: nad BB- dopisany B-	!	!
1G\	O-	Ip-
*2\right	*	*
2F\	-mni	-sam
=2	=2	=2
1B-\	di-	co-
2B-\	-e	-le,
=3	=3	=3
1F\	dic	ut
2G\	Ma-	de
=4	=4	=4
1D\	-ri-	mo-
2D/	-ae	-le
=5	=5	=5
1BB-/	me-	Cri-
2E-X\	-a	-mi-
=6	=6	=6
1C/	lau-	-num
[2D\	-des	Te
=7	=7	=7
!LO:N:xstem:cue	!	!
4D\]	.	.
4E-X\	.	.
2F\	a-	li-
2FF/	-ni-	-be-
=8	=8	=8
1.BB-/	-ma	-ret
!!LO:LB:g=original
=9	=9	=9
1B-\	E-	Hanc
2B-\	-jus	ap-
=10	=10	=10
1F\	Fe-	-pel-
2F\	-sta	-la
=11	=11	=11
1G\	e-	ne
2G\	-jus	pro-
=12	=12	=12
1D\	ge-	-cel-
2D\	-sta	-la
=13	=13	=13
2.G\	co-	Vi-
4A\	-le	-ti-
2G\	de-	-o-
=14	=14	=14
2C/	-vo-	-rum
2.D\	-tiſ-	su-
4D\	-si-	-pe-
=15	=15	=15
!LO:SIC:v:t=custos  E-	!	!
1.GG/	-ma	-ret.
!LO:PB:g=original	!	!
=16||	=16||	=16||
*M4/4	*	*
*met(c)	*	*
!LO:TX:a:t=Lente	!	!
4E-X\	Con-	Haec
4D\	-tem-	per-
4E-\	-pla-	-so-
4BB-/	-re	-na
=17	=17	=17
4F\	et	no-
4En\	mi-	-bis
4F\	-ra-	do-
4C/	-re	-na
=18	=18	=18
4G\	E-	con-
4F#X\	-jus	-tu-
4G\	cel-	-lit
4C/	-ſi-	cae-
=19	=19	=19
4.D/	-tu-	-le-
8D/	-di-	-sti-
2GG/	-nem!	-a
=20	=20	=20
!LO:SIC:v:l:s=Haec:2	!	!
(8C/L	dic	Laec
8D/J)	.	.
8E-X/L	Fe-	Re-
8F/J	.	.
4G\	-li-	-gi-
4G\	-cem	-na
!!LO:LB:g=original
=21	=21	=21
(8E-X\L	Ge-	nos
8F\J)	.	.
(8G\L	-ni-	di-
8A\J)	.	.
4B-\	-tri-	-vi-
4BB-/	-cem	-na
=22	=22	=22
4G\	dic	il-
4G\	be-	-lu-
4A-X\	-a-	-stra-
4A-\	-tam	-vit
=23	=23	=23
4.B-\	Vir-	gra-
8BB-/	-gi-	-ti-
2E-X\	-nem	-a
=24	=24	=24
4D\	dic	/il-
4D\	be-	-lu-
4E-X\	-a-	-stra-
4E-\	-tam	-vit
=25	=25	=25
4.F\	vir-	gra-
8FF/	-gi-	-ti-
2BB-/	-nem	-a/
==	==	==
*-	*-	*-
!!!EED: Leszek Kubiak
!!!EST: 2021-02-22
!!!ENC: Katarzyna Serwa
!!!END: 2021-02-14
